X: 1
T: William
C: Peter Blue
S: Bruce Sagan's "scanfolk" session archive 2021-4-13
F: https://app.box.com/s/u6iiren0igvsukrhdducy7orq72jayq8/folder/135484938751
Z: 2021 John Chambers <jc:trillian.mit.edu>
R: waltz
M: 3/4
L: 1/8
K: Dm
"^A"|:\
"Dm"(a2 d3) d | de f2 d2 | "C"(g2 c3) c | cd e2 c2 |\
"Bb"(f2 B3) B | Bc d2 B2 | "A7"A3 (E F2) | E2 A,4 ||
"Dm"(a2 d3) d | de f2 d2 | "C"(g2 c3) c | cd e2 c2 |\
"Bb"Bc d3 d | "C"cd e3 e | "A7"de (f2 g2) | "Dm"d6 :|
"^B"|:\
"Bb"d2 (B2 A2) | "C7"G4 (3(GAB) | "F"c2 (A2 G2) | "Dm"F4 F2 |\
"Dm"A,D E2 F2 | "Bb"B,D E2 F2 | "C7"CD (E2 F2) | "F"A6 ||
"Bb"d2 (B2 A2) | "C7"G4 (3(GAB) | "F"c2 (A2 G2) | "Dm"F4 F2 |\
"Dm"A,D E2 F2 | "Bb"B,D E2 F2 | "C"CD (E2 C2) | "Dm"D6 :|
